icons/svg/old_road_shields/h_mot_shield6.svg

<svg width="53" height="17" viewBox="0 0 53 17" fill="none" xmlns="http://www.w3.org/2000/svg">
<g clip-path="url(#clip0)">
<path fill-rule="evenodd" clip-rule="evenodd" d="M7.843 0H44.929C49.243 0 52.757 3.521 52.757 7.841V8.728C52.757 13.05 49.243 16.57 44.929 16.57H7.843C3.53 16.57 0.0149994 13.05 0.0149994 8.728V7.841C0.0149994 3.521 3.529 0 7.843 0Z" fill="#6883E7"/>
<path fill-rule="evenodd" clip-rule="evenodd" d="M7.9 1.08801H44.9C48.644 1.08801 51.701 4.12101 51.701 7.87001V8.64201C51.701 12.392 48.644 15.452 44.9 15.452H7.9C4.157 15.452 1.1 12.391 1.1 8.64201V7.87001C1.101 4.12101 4.157 1.08801 7.9 1.08801Z" fill="white"/>
<path fill-rule="evenodd" clip-rule="evenodd" d="M8.243 2.43301H44.529C47.586 2.43301 50.072 4.92201 50.072 7.98501V8.61501C50.072 11.649 47.586 14.166 44.529 14.166H8.243C5.186 14.166 2.7 11.648 2.7 8.61501V7.98501C2.7 4.92201 5.187 2.43301 8.243 2.43301Z" fill="#6883E7"/>
</g>
<defs>
<clipPath id="clip0">
<path d="M0 0H52.743V16.57H0V0Z" fill="white"/>
</clipPath>
</defs>
</svg>

<?xml version="1.0" encoding="utf-8"?>
<!-- Generator: Adobe Illustrator 16.0.4, SVG Export Plug-In . SVG Version: 6.00 Build 0)  -->
<!DOCTYPE svg PUBLIC "-//W3C//DTD SVG 1.1//EN" "http://www.w3.org/Graphics/SVG/1.1/DTD/svg11.dtd">
<svg version="1.1" id="Слой_1" xmlns="http://www.w3.org/2000/svg" xmlns:xlink="http://www.w3.org/1999/xlink" x="0px" y="0px"
	 width="52.743px" height="16.57px" viewBox="0 0 52.743 16.57" enable-background="new 0 0 52.743 16.57" xml:space="preserve">
<path fill-rule="evenodd" clip-rule="evenodd" fill="#6883E7" d="M7.843,0h37.086c4.314,0,7.828,3.521,7.828,7.841v0.887
	c0,4.322-3.514,7.842-7.828,7.842H7.843c-4.313,0-7.828-3.52-7.828-7.842V7.841C0.015,3.521,3.529,0,7.843,0L7.843,0z"/>
<path fill-rule="evenodd" clip-rule="evenodd" fill="#FFFFFF" d="M7.9,1.088h37c3.744,0,6.801,3.033,6.801,6.782v0.772
	c0,3.75-3.057,6.81-6.801,6.81h-37c-3.743,0-6.8-3.061-6.8-6.81V7.87C1.101,4.121,4.157,1.088,7.9,1.088L7.9,1.088z"/>
<path fill-rule="evenodd" clip-rule="evenodd" fill="#6883E7" d="M8.243,2.433h36.286c3.057,0,5.543,2.489,5.543,5.552v0.63
	c0,3.034-2.486,5.551-5.543,5.551H8.243c-3.057,0-5.543-2.518-5.543-5.551v-0.63C2.7,4.922,5.187,2.433,8.243,2.433L8.243,2.433z"/>
</svg>
